X: 27957
T: Mourne Shore, The
R: waltz
M: 3/4
K: Dmajor
D2 E2|F3 E D2|E2 F2 A2|B6|A2 d2- dA|B2 A2 F2|E4 D2|D6-|D2 D2 E2|
F2 E2 D2|EF- F2 A2|B6|A4 dA|B4 AF|E4 D2|D6-|D4||
A2|d4 c2|B4 d2|cA- A2 F2|A4 FA|B4 AF|A2 B2 de|d6-|d4 DE|
F2 (3EFE D2|E3 F A2|B6|A2 d2 A2|B2 A2- AF|E4 D2|D6-|D2||

